X:803
T:Broadcove Bride
R:reel
C:Dougie MacDonald
D:A Miner, Dougie MacDonald, 1998
N:Bookings,Mechanicals etc.
N:..... Dougie MacDonald <dougie@cranfordpub.com>
N:More tunes and information <http://www.cranfordpub.com/dougie>
Q:300
O:England
L:1/8
M:C|
K:Eminor
c|BEGB c2 cd|BAGB ADFA|BEGB c2 ec|Begf e2 e:|
F|GEB,G AFDF|BGDG cGEG|c2 cd BAGB| AFDF GEFD|
GEB,G AFDF|BGDG cGEG|c2 cd BAGB|AFGF E3|]
P:an occational variation for bars A1 and A2
c|BEGB c2 cd|eEdE cBAc|BEGB c2 ec|Begf e2 e:|
F|GEB,G AFAF|BGDG cG E/E/E|cGEc BAGB| AFDF GEFD|
GEB,G AFAF|BGDG cG E/E/E|c2 cd BAGB|AFGF E3|]
